( Made using CamBam - http://www.cambam.co.uk )
( Case Fan Cutout 4/27/2017 12:30:34 PM )
( T3 : 3.0 )
G21 G90 G64 G40
G0 Z3.0
( T3 : 3.0 )
T3 M6
( Profile1 )
G17
M3 S1000
G0 X80.1153 Y-31.2292
G0 Z1.0
G1 F100.0 Z-2.0
G3 F400.0 X75.645 Y-31.14 I-2.711 J-23.8066
G3 X75.6446 I0.1101 J-1.496
G3 X67.8599 Y-33.0026 I1.8381 J-24.8826
G3 X63.9332 Y-35.0561 I9.9285 J-23.7661
G2 X65.2329 Y-30.3797 I26.872 J-4.9498
G2 X68.8113 Y-23.7903 I25.7408 J-9.7122
G1 X69.7609
G3 X69.7629 I0.0 J1.5
G2 X73.7067 Y-24.1975 I0.0244 J-19.0643
G3 X73.7075 Y-24.1977 I0.3084 J1.468
G2 X76.5584 Y-25.0375 I-3.8164 J-18.2149
G3 X76.5589 Y-25.0377 I0.5374 J1.4004
G2 X80.4844 Y-27.1235 I-6.5147 J-16.9973
G3 X80.4852 Y-27.124 I0.8603 J1.2288
G2 X82.5855 Y-28.8555 I-9.8511 J-14.0893
G3 X80.1153 Y-31.2292 I8.4367 J-11.2521
G1 F100.0 Z-4.0
G3 F400.0 X75.645 Y-31.14 I-2.711 J-23.8066
G3 X75.6446 I0.1101 J-1.496
G3 X67.8599 Y-33.0026 I1.8381 J-24.8826
G3 X63.9332 Y-35.0561 I9.9285 J-23.7661
G2 X65.2329 Y-30.3797 I26.872 J-4.9498
G2 X68.8113 Y-23.7903 I25.7408 J-9.7122
G1 X69.7609
G3 X69.7629 I0.0 J1.5
G2 X73.7067 Y-24.1975 I0.0244 J-19.0643
G3 X73.7075 Y-24.1977 I0.3084 J1.468
G2 X76.5584 Y-25.0375 I-3.8164 J-18.2149
G3 X76.5589 Y-25.0377 I0.5374 J1.4004
G2 X80.4844 Y-27.1235 I-6.5147 J-16.9973
G3 X80.4852 Y-27.124 I0.8603 J1.2288
G2 X82.5855 Y-28.8555 I-9.8511 J-14.0893
G3 X80.1153 Y-31.2292 I8.4367 J-11.2521
G0 Z3.0
G0 X77.1167 Y-38.0701
G0 Z1.0
G1 F100.0 Z-2.0
G3 F400.0 X76.9741 Y-40.061 I13.8486 J-1.9925
G3 Y-40.0648 I1.5 J-0.0002
G3 X77.0494 Y-41.4949 I14.2845 J0.0348
G3 X73.8261 Y-44.5925 I14.9055 J-18.7366
G3 X73.8258 Y-44.5928 I1.1358 J-0.9798
G3 X71.4574 Y-47.8341 I18.9114 J-16.3043
G3 X71.4564 Y-47.8357 I1.2784 J-0.7847
G3 X68.9494 Y-53.295 I21.6121 J-13.2298
G3 X68.9491 Y-53.296 I1.4277 J-0.46
G3 X68.3155 Y-55.6389 I24.6808 J-7.932
G2 X65.9274 Y-51.4141 I22.6064 J15.5655
G1 Y-51.414
G1 Y-51.4141
G2 X63.7965 Y-44.2281 I24.8756 J11.2856
G1 X64.4688 Y-43.5557
G3 X64.4693 Y-43.5552 I-1.0607 J1.0607
G2 X67.5481 Y-41.0529 I13.5993 J-13.5866
G3 X67.5484 Y-41.0527 I-0.8209 J1.2554
G2 X72.9579 Y-38.6468 I10.1178 J-15.4651
G2 X75.8767 Y-38.1358 I4.5581 J-17.4453
G2 X77.1167 Y-38.0701 I1.5351 J-17.2186
G1 F100.0 Z-4.0
G3 F400.0 X76.9741 Y-40.061 I13.8486 J-1.9925
G3 Y-40.0648 I1.5 J-0.0002
G3 X77.0494 Y-41.4949 I14.2845 J0.0348
G3 X73.8261 Y-44.5925 I14.9055 J-18.7366
G3 X73.8258 Y-44.5928 I1.1358 J-0.9798
G3 X71.4574 Y-47.8341 I18.9114 J-16.3043
G3 X71.4564 Y-47.8357 I1.2784 J-0.7847
G3 X68.9494 Y-53.295 I21.6121 J-13.2298
G3 X68.9491 Y-53.296 I1.4277 J-0.46
G3 X68.3155 Y-55.6389 I24.6808 J-7.932
G2 X65.9274 Y-51.4141 I22.6064 J15.5655
G1 Y-51.414
G1 Y-51.4141
G2 X63.7965 Y-44.2281 I24.8756 J11.2856
G1 X64.4688 Y-43.5557
G3 X64.4693 Y-43.5552 I-1.0607 J1.0607
G2 X67.5481 Y-41.0529 I13.5993 J-13.5866
G3 X67.5484 Y-41.0527 I-0.8209 J1.2554
G2 X72.9579 Y-38.6468 I10.1178 J-15.4651
G2 X75.8767 Y-38.1358 I4.5581 J-17.4453
G2 X77.1167 Y-38.0701 I1.5351 J-17.2186
G0 Z3.0
G0 X79.7685 Y-48.4496
G0 Z1.0
G1 F100.0 Z-2.0
G3 F400.0 X82.142 Y-50.9196 I11.2572 J8.4417
G3 X82.0529 Y-55.3904 I23.787 J-2.7103
G1 Y-55.3905
G3 X83.9155 Y-63.1753 I24.8764 J1.8367
G3 X85.9687 Y-67.1016 I23.7604 J9.9252
G2 X74.7031 Y-62.2245 I4.9562 J26.8978
G1 Y-61.2741
G3 Y-61.2719 I-1.5 J0.0
G2 X75.1103 Y-57.3286 I19.021 J0.0286
G3 X75.1106 Y-57.327 I-1.4679 J0.3087
G2 X77.2353 Y-51.7992 I18.1105 J-3.7887
G3 X77.2356 Y-51.7987 I-1.296 J0.7553
G2 X78.034 Y-50.5541 I14.8577 J-8.6523
G3 X78.0367 Y-50.5502 I-1.2266 J0.8634
G2 X79.7685 Y-48.4496 I14.0877 J-9.8499
G1 F100.0 Z-4.0
G3 F400.0 X82.142 Y-50.9196 I11.2572 J8.4417
G3 X82.0529 Y-55.3904 I23.787 J-2.7103
G1 Y-55.3905
G3 X83.9155 Y-63.1753 I24.8764 J1.8367
G3 X85.9687 Y-67.1016 I23.7604 J9.9252
G2 X74.7031 Y-62.2245 I4.9562 J26.8978
G1 Y-61.2741
G3 Y-61.2719 I-1.5 J0.0
G2 X75.1103 Y-57.3286 I19.021 J0.0286
G3 X75.1106 Y-57.327 I-1.4679 J0.3087
G2 X77.2353 Y-51.7992 I18.1105 J-3.7887
G3 X77.2356 Y-51.7987 I-1.296 J0.7553
G2 X78.034 Y-50.5541 I14.8577 J-8.6523
G3 X78.0367 Y-50.5502 I-1.2266 J0.8634
G2 X79.7685 Y-48.4496 I14.0877 J-9.8499
G0 Z3.0
G0 X88.9823 Y-53.9187
G0 Z1.0
G1 F100.0 Z-2.0
G3 F400.0 X90.9742 Y-54.0611 I1.9897 J13.8276
G3 X90.9781 I-0.0002 J1.5
G3 X92.408 Y-53.9856 I-0.0393 J14.3234
G3 X95.5056 Y-57.2091 I18.7273 J14.8961
G1 X95.5057 Y-57.2092
G3 X102.3261 Y-61.3962 I16.2881 J18.8837
G3 X106.5502 Y-62.7201 I9.7818 J23.8105
G2 X102.3268 Y-65.108 I-15.5991 J22.6608
G1 X102.3267
G1 X102.3269 Y-65.1079
G1 X102.3268 Y-65.108
G2 X95.1414 Y-67.2389 I-11.2722 J24.8294
G1 X94.4685 Y-66.5661
G3 X94.4681 Y-66.5658 I-1.0606 J-1.0607
G2 X91.9657 Y-63.487 I13.5963 J13.6075
G1 Y-63.4871
G1 Y-63.487
G2 X89.5594 Y-58.0757 I15.4905 J10.1291
G3 X89.5593 Y-58.0754 I-1.4505 J-0.3824
G2 X89.2437 Y-56.6305 I16.661 J4.3957
G3 X89.2429 Y-56.626 I-1.4778 J-0.2569
G2 X88.9823 Y-53.9187 I16.9376 J2.9971
G1 F100.0 Z-4.0
G3 F400.0 X90.9742 Y-54.0611 I1.9897 J13.8276
G3 X90.9781 I-0.0002 J1.5
G3 X92.408 Y-53.9856 I-0.0393 J14.3234
G3 X95.5056 Y-57.2091 I18.7273 J14.8961
G1 X95.5057 Y-57.2092
G3 X102.3261 Y-61.3962 I16.2881 J18.8837
G3 X106.5502 Y-62.7201 I9.7818 J23.8105
G2 X102.3268 Y-65.108 I-15.5991 J22.6608
G1 X102.3267
G1 X102.3269 Y-65.1079
G1 X102.3268 Y-65.108
G2 X95.1414 Y-67.2389 I-11.2722 J24.8294
G1 X94.4685 Y-66.5661
G3 X94.4681 Y-66.5658 I-1.0606 J-1.0607
G2 X91.9657 Y-63.487 I13.5963 J13.6075
G1 Y-63.4871
G1 Y-63.487
G2 X89.5594 Y-58.0757 I15.4905 J10.1291
G3 X89.5593 Y-58.0754 I-1.4505 J-0.3824
G2 X89.2437 Y-56.6305 I16.661 J4.3957
G3 X89.2429 Y-56.626 I-1.4778 J-0.2569
G2 X88.9823 Y-53.9187 I16.9376 J2.9971
G0 Z3.0
G0 X99.3625 Y-51.2667
G0 Z1.0
G1 F100.0 Z-2.0
G3 F400.0 X101.8279 Y-48.8985 I-8.4385 J11.2528
G3 X102.722 Y-48.9851 I2.8724 J25.0057
G3 X102.7324 Y-48.9859 I0.1179 J1.4954
G1 X102.9428 Y-49.001
G3 X102.9624 Y-49.0023 I0.1075 J1.4961
G1 X103.3311 Y-49.0239
G3 X103.3529 Y-49.0251 I0.0879 J1.4974
G1 X103.6297 Y-49.0372
G3 X103.6461 Y-49.0379 I0.066 J1.4985
G1 X103.8538 Y-49.0447
G3 X103.8714 Y-49.0452 I0.0495 J1.4992
G1 X104.1829 Y-49.0518
G3 X104.2041 Y-49.0521 I0.0319 J1.4997
G1 X104.5156 Y-49.0543
G3 X104.5267 Y-49.0544 I0.0106 J1.5
G3 X108.9739 Y-48.6439 I-0.0072 J24.3771
G3 X108.9744 I-0.2741 J1.4747
G3 X115.3147 Y-46.5667 I-4.6234 J24.8282
G3 X115.3157 Y-46.5663 I-0.6512 J1.3513
G3 X118.0162 Y-45.058 I-11.2998 J23.4034
G2 X116.7167 Y-49.7387 I-26.8915 J4.9452
G2 X113.137 Y-56.332 I-25.7317 J9.7022
G1 X112.1868
G3 X112.185 I0.0 J-1.5
G2 X108.241 Y-55.9247 I-0.0229 J19.079
G3 X108.2403 Y-55.9245 I-0.3083 J-1.468
G2 X105.3895 Y-55.0848 I3.8168 J18.2157
G3 X105.3889 Y-55.0845 I-0.5374 J-1.4004
G2 X101.4638 Y-52.9989 I6.5094 J16.9866
G3 X101.4628 Y-52.9982 I-0.8604 J-1.2287
G2 X99.3625 Y-51.2667 I9.8393 J14.0752
G1 F100.0 Z-4.0
G3 F400.0 X101.8279 Y-48.8985 I-8.4385 J11.2528
G3 X102.722 Y-48.9851 I2.8724 J25.0057
G3 X102.7324 Y-48.9859 I0.1179 J1.4954
G1 X102.9428 Y-49.001
G3 X102.9624 Y-49.0023 I0.1075 J1.4961
G1 X103.3311 Y-49.0239
G3 X103.3529 Y-49.0251 I0.0879 J1.4974
G1 X103.6297 Y-49.0372
G3 X103.6461 Y-49.0379 I0.066 J1.4985
G1 X103.8538 Y-49.0447
G3 X103.8714 Y-49.0452 I0.0495 J1.4992
G1 X104.1829 Y-49.0518
G3 X104.2041 Y-49.0521 I0.0319 J1.4997
G1 X104.5156 Y-49.0543
G3 X104.5267 Y-49.0544 I0.0106 J1.5
G3 X108.9739 Y-48.6439 I-0.0072 J24.3771
G3 X108.9744 I-0.2741 J1.4747
G3 X115.3147 Y-46.5667 I-4.6234 J24.8282
G3 X115.3157 Y-46.5663 I-0.6512 J1.3513
G3 X118.0162 Y-45.058 I-11.2998 J23.4034
G2 X116.7167 Y-49.7387 I-26.8915 J4.9452
G2 X113.137 Y-56.332 I-25.7317 J9.7022
G1 X112.1868
G3 X112.185 I0.0 J-1.5
G2 X108.241 Y-55.9247 I-0.0229 J19.079
G3 X108.2403 Y-55.9245 I-0.3083 J-1.468
G2 X105.3895 Y-55.0848 I3.8168 J18.2157
G3 X105.3889 Y-55.0845 I-0.5374 J-1.4004
G2 X101.4638 Y-52.9989 I6.5094 J16.9866
G3 X101.4628 Y-52.9982 I-0.8604 J-1.2287
G2 X99.3625 Y-51.2667 I9.8393 J14.0752
G0 Z3.0
G0 X104.8309 Y-42.0528
G0 Z1.0
G1 F100.0 Z-2.0
G3 F400.0 X104.9741 Y-40.0622 I-13.9011 J2.0009
G3 Y-40.0567 I-1.5 J0.0011
G3 X104.8985 Y-38.6272 I-14.3447 J-0.0427
G3 X108.1219 Y-35.5295 I-14.8972 J18.7277
G3 X108.1221 Y-35.5292 I-1.1358 J0.9797
G3 X110.4905 Y-32.2879 I-18.9108 J16.3036
G3 X110.4915 Y-32.2863 I-1.2784 J0.7847
G3 X112.9983 Y-26.8271 I-21.6182 J13.2321
G3 X112.9987 Y-26.826 I-1.4277 J0.46
G3 X113.6323 Y-24.4829 I-24.6874 J7.9331
G2 X116.0205 Y-28.7079 I-22.6017 J-15.5633
G1 Y-28.708
G1 Y-28.7079
G2 X118.1515 Y-35.894 I-24.8936 J-11.2912
G1 X117.479 Y-36.5664
G3 X117.4775 Y-36.5679 I1.0606 J-1.0607
G2 X114.4008 Y-39.0684 I-13.4905 J13.4556
G3 X114.3998 Y-39.0691 I0.8198 J-1.2561
G2 X108.9883 Y-41.4755 I-10.131 J15.4947
G3 X108.9879 Y-41.4756 I0.3824 J-1.4504
G2 X107.5433 Y-41.7911 I-4.3866 J16.6193
G3 X107.5385 Y-41.792 I0.2567 J-1.4779
G2 X104.8309 Y-42.0528 I-2.9959 J16.916
G1 F100.0 Z-4.0
G3 F400.0 X104.9741 Y-40.0622 I-13.9011 J2.0009
G3 Y-40.0567 I-1.5 J0.0011
G3 X104.8985 Y-38.6272 I-14.3447 J-0.0427
G3 X108.1219 Y-35.5295 I-14.8972 J18.7277
G3 X108.1221 Y-35.5292 I-1.1358 J0.9797
G3 X110.4905 Y-32.2879 I-18.9108 J16.3036
G3 X110.4915 Y-32.2863 I-1.2784 J0.7847
G3 X112.9983 Y-26.8271 I-21.6182 J13.2321
G3 X112.9987 Y-26.826 I-1.4277 J0.46
G3 X113.6323 Y-24.4829 I-24.6874 J7.9331
G2 X116.0205 Y-28.7079 I-22.6017 J-15.5633
G1 Y-28.708
G1 Y-28.7079
G2 X118.1515 Y-35.894 I-24.8936 J-11.2912
G1 X117.479 Y-36.5664
G3 X117.4775 Y-36.5679 I1.0606 J-1.0607
G2 X114.4008 Y-39.0684 I-13.4905 J13.4556
G3 X114.3998 Y-39.0691 I0.8198 J-1.2561
G2 X108.9883 Y-41.4755 I-10.131 J15.4947
G3 X108.9879 Y-41.4756 I0.3824 J-1.4504
G2 X107.5433 Y-41.7911 I-4.3866 J16.6193
G3 X107.5385 Y-41.792 I0.2567 J-1.4779
G2 X104.8309 Y-42.0528 I-2.9959 J16.916
G0 Z3.0
G0 X102.1797 Y-31.6725
G0 Z1.0
G1 F100.0 Z-2.0
G3 F400.0 X99.806 Y-29.2025 I-11.2442 J-8.4304
G3 X99.8951 Y-24.732 I-23.7858 J2.7102
G1 Y-24.7319
G3 X98.0325 Y-16.9469 I-24.8748 J-1.836
G1 X98.0324 Y-16.9468
G1 X98.0325 Y-16.947
G1 Y-16.9469
G3 X95.9787 Y-13.0205 I-23.7851 J-9.941
G2 X100.6553 Y-14.32 I-4.9524 J-26.8862
G2 X107.2448 Y-17.8985 I-9.7144 J-25.7448
G1 Y-18.8481
G3 Y-18.8501 I1.5 J0.0
G2 X106.8375 Y-22.7939 I-19.0612 J-0.0246
G3 X106.8373 Y-22.795 I1.468 J-0.3084
G2 X104.7125 Y-28.3232 I-18.122 J3.7929
G3 X104.7123 Y-28.3235 I1.296 J-0.7552
G2 X103.9139 Y-29.5681 I-14.8559 J8.6511
G3 X103.9111 Y-29.5721 I1.2266 J-0.8634
G2 X102.1797 Y-31.6725 I-14.0804 J9.8433
G1 F100.0 Z-4.0
G3 F400.0 X99.806 Y-29.2025 I-11.2442 J-8.4304
G3 X99.8951 Y-24.732 I-23.7858 J2.7102
G1 Y-24.7319
G3 X98.0325 Y-16.9469 I-24.8748 J-1.836
G1 X98.0324 Y-16.9468
G1 X98.0325 Y-16.947
G1 Y-16.9469
G3 X95.9787 Y-13.0205 I-23.7851 J-9.941
G2 X100.6553 Y-14.32 I-4.9524 J-26.8862
G2 X107.2448 Y-17.8985 I-9.7144 J-25.7448
G1 Y-18.8481
G3 Y-18.8501 I1.5 J0.0
G2 X106.8375 Y-22.7939 I-19.0612 J-0.0246
G3 X106.8373 Y-22.795 I1.468 J-0.3084
G2 X104.7125 Y-28.3232 I-18.122 J3.7929
G3 X104.7123 Y-28.3235 I1.296 J-0.7552
G2 X103.9139 Y-29.5681 I-14.8559 J8.6511
G3 X103.9111 Y-29.5721 I1.2266 J-0.8634
G2 X102.1797 Y-31.6725 I-14.0804 J9.8433
G0 Z3.0
G0 X92.9657 Y-26.2034
G0 Z1.0
G1 F100.0 Z-2.0
G3 F400.0 X90.9732 Y-26.0613 I-1.9859 J-13.7997
G3 X90.9699 I0.0007 J-1.5
G3 X89.5403 Y-26.1367 I0.0385 J-14.3107
G3 X86.4424 Y-22.9133 I-18.7141 J-14.8847
G3 X83.2008 Y-20.5447 I-16.2801 J-18.8778
G3 X83.1996 Y-20.5439 I-0.7846 J-1.2785
G3 X77.7399 Y-18.0367 I-13.2157 J-21.5801
G3 X77.7395 Y-18.0366 I-0.4597 J-1.4278
G3 X75.3966 Y-17.4024 I-7.9219 J-24.6245
G2 X79.6211 Y-15.0146 I15.5672 J-22.6102
G3 X79.6214 Y-15.0145 I-0.6198 J1.366
G2 X86.8069 Y-12.8837 I11.2719 J-24.8302
G1 X87.4794 Y-13.5561
G3 X87.4809 Y-13.5576 I1.0606 J1.0607
G2 X89.9813 Y-16.6339 I-13.4295 J-13.4697
G3 X89.9821 Y-16.6351 I1.2563 J0.8196
G2 X92.3885 Y-22.0467 I-15.4947 J-10.131
G3 X92.3886 Y-22.047 I1.4504 J0.3824
G2 X92.7042 Y-23.4919 I-16.6469 J-4.3925
G3 X92.705 Y-23.4965 I1.4779 J0.2568
G2 X92.9657 Y-26.2034 I-16.9237 J-2.9963
G1 F100.0 Z-4.0
G3 F400.0 X90.9732 Y-26.0613 I-1.9859 J-13.7997
G3 X90.9699 I0.0007 J-1.5
G3 X89.5403 Y-26.1367 I0.0385 J-14.3107
G3 X86.4424 Y-22.9133 I-18.7141 J-14.8847
G3 X83.2008 Y-20.5447 I-16.2801 J-18.8778
G3 X83.1996 Y-20.5439 I-0.7846 J-1.2785
G3 X77.7399 Y-18.0367 I-13.2157 J-21.5801
G3 X77.7395 Y-18.0366 I-0.4597 J-1.4278
G3 X75.3966 Y-17.4024 I-7.9219 J-24.6245
G2 X79.6211 Y-15.0146 I15.5672 J-22.6102
G3 X79.6214 Y-15.0145 I-0.6198 J1.366
G2 X86.8069 Y-12.8837 I11.2719 J-24.8302
G1 X87.4794 Y-13.5561
G3 X87.4809 Y-13.5576 I1.0606 J1.0607
G2 X89.9813 Y-16.6339 I-13.4295 J-13.4697
G3 X89.9821 Y-16.6351 I1.2563 J0.8196
G2 X92.3885 Y-22.0467 I-15.4947 J-10.131
G3 X92.3886 Y-22.047 I1.4504 J0.3824
G2 X92.7042 Y-23.4919 I-16.6469 J-4.3925
G3 X92.705 Y-23.4965 I1.4779 J0.2568
G2 X92.9657 Y-26.2034 I-16.9237 J-2.9963
G0 Z3.0
M5
M30
